X: 4
T: The Little Diamond
R: polka
M: 2/4
L: 1/8
K: Dmaj
A>B AF|DF Ad|A>B AF|GF EF/E/|DE FG|AB cd|e>d ce|1 d2 dB:|2 d2 de||fd ge|fd cB|Ad cd|fe ed/e/|fd ge|fd cB|Ag ec|d2 d>e|fa ge|fd cB|Ad cd|fe ed/e/|fd ge|fd cB|Ag ec|d2 dB||


Tune 604	Setting 604

